resources/save.svg

<svg xmlns="http://www.w3.org/2000/svg" width="24" height="24" fill="#f4f4f7" viewBox="0 0 24 24"><path stroke="#374151" stroke-linecap="round" stroke-linejoin="round" stroke-width="2" d="M8 7H5C3.89543 7 3 7.89543 3 9V18C3 19.1046 3.89543 20 5 20H19C20.1046 20 21 19.1046 21 18V9C21 7.89543 20.1046 7 19 7H16M15 11L12 14M12 14L9 11M12 14L12 4"/></svg>

<svg width="24" height="24" fill="#f4f4f7">
  <path stroke="#374151" stroke-linecap="round" stroke-linejoin="round" stroke-width="2" d="M8 7H5a2 2 0 0 0-2 2v9a2 2 0 0 0 2 2h14a2 2 0 0 0 2-2V9a2 2 0 0 0-2-2h-3m-1 4-3 3m0 0-3-3m3 3V4"/>
</svg>
